website/static/img/icons/oracle.svg

<svg enable-background="new 0 0 126 126" viewBox="0 0 126 126" xmlns="http://www.w3.org/2000/svg"><path d="m60 127c-20 0-39.5 0-59 0 0-42 0-84 0-126h126v126c-22.166664 0-44.333336 0-67 0m-12.871033-41.227592c9.482067.081893 18.964157.231925 28.44619.229187 13.129044-.0038 22.88147-9.132706 23.28125-21.658745.400314-12.542595-9.275925-22.698452-22.429069-23.142418-8.312516-.280575-16.645413-.204014-24.963295-.020874-12.499699.275207-21.351246 8.23101-22.736584 20.139698-1.334906 11.475185 5.551334 20.983806 18.401508 24.453152z" fill="#c74634"/><path d="m46.708 85.669083c-12.429207-3.366021-19.315447-12.874642-17.980541-24.349827 1.385338-11.908688 10.236885-19.864491 22.736584-20.139698 8.317882-.18314 16.650779-.259701 24.963295.020874 13.153144.443966 22.829383 10.599823 22.429069 23.142418-.39978 12.526039-10.152206 21.654945-23.28125 21.658745-9.482033.002738-18.964123-.147294-28.867157-.332512m42.020439-15.843903c3.971344-11.314262-2.171669-20.173462-14.118156-20.275837-7.331871-.062836-14.664978-.051754-21.997036-.001705-9.109356.062176-15.406551 5.857372-15.422691 14.103691-.016022 8.185692 6.339454 14.173157 15.396999 14.308907 7.330757.109871 14.664482.015731 21.996872.024665 5.950943.007256 10.664169-2.230766 14.144012-8.159721z" fill="#fdf8f7"/><path d="m88.517677 70.152954c-3.269081 5.601181-7.982307 7.839203-13.93325 7.831947-7.33239-.008934-14.666115.085206-21.996872-.024665-9.057545-.13575-15.413021-6.123215-15.396999-14.308907.01614-8.246319 6.313335-14.041515 15.422691-14.103691 7.332058-.050049 14.665165-.061131 21.997036.001705 11.946487.102375 18.0895 8.961575 13.907394 20.603611z" fill="#c74735"/></svg>

<svg version="1.1" id="Layer_1" xmlns="http://www.w3.org/2000/svg"
	xmlns:xlink="http://www.w3.org/1999/xlink" x="0px" y="0px"
	width="100%" viewBox="0 0 126 126" enable-background="new 0 0 126 126" xml:space="preserve">
<path fill="#C74634" opacity="1.000000" stroke="none" 
	d="
M60.000000,127.000000 
	C40.000000,127.000000 20.500000,127.000000 1.000000,127.000000 
	C1.000000,85.000000 1.000000,43.000000 1.000000,1.000000 
	C43.000000,1.000000 85.000000,1.000000 127.000000,1.000000 
	C127.000000,43.000000 127.000000,85.000000 127.000000,127.000000 
	C104.833336,127.000000 82.666664,127.000000 60.000000,127.000000 
M47.128967,85.772408 
	C56.611034,85.854301 66.093124,86.004333 75.575157,86.001595 
	C88.704201,85.997795 98.456627,76.868889 98.856407,64.342850 
	C99.256721,51.800255 89.580482,41.644398 76.427338,41.200432 
	C68.114822,40.919857 59.781925,40.996418 51.464043,41.179558 
	C38.964344,41.454765 30.112797,49.410568 28.727459,61.319256 
	C27.392553,72.794441 34.278793,82.303062 47.128967,85.772408 
z"/>
<path fill="#FDF8F7" opacity="1.000000" stroke="none" 
	d="
M46.708000,85.669083 
	C34.278793,82.303062 27.392553,72.794441 28.727459,61.319256 
	C30.112797,49.410568 38.964344,41.454765 51.464043,41.179558 
	C59.781925,40.996418 68.114822,40.919857 76.427338,41.200432 
	C89.580482,41.644398 99.256721,51.800255 98.856407,64.342850 
	C98.456627,76.868889 88.704201,85.997795 75.575157,86.001595 
	C66.093124,86.004333 56.611034,85.854301 46.708000,85.669083 
M88.728439,69.825180 
	C92.699783,58.510918 86.556770,49.651718 74.610283,49.549343 
	C67.278412,49.486507 59.945305,49.497589 52.613247,49.547638 
	C43.503891,49.609814 37.206696,55.405010 37.190556,63.651329 
	C37.174534,71.837021 43.530010,77.824486 52.587555,77.960236 
	C59.918312,78.070107 67.252037,77.975967 74.584427,77.984901 
	C80.535370,77.992157 85.248596,75.754135 88.728439,69.825180 
z"/>
<path fill="#C74735" opacity="1.000000" stroke="none" 
	d="
M88.517677,70.152954 
	C85.248596,75.754135 80.535370,77.992157 74.584427,77.984901 
	C67.252037,77.975967 59.918312,78.070107 52.587555,77.960236 
	C43.530010,77.824486 37.174534,71.837021 37.190556,63.651329 
	C37.206696,55.405010 43.503891,49.609814 52.613247,49.547638 
	C59.945305,49.497589 67.278412,49.486507 74.610283,49.549343 
	C86.556770,49.651718 92.699783,58.510918 88.517677,70.152954 
z"/>
</svg>
